X: 21
T: No_29_War_Song_Dance.krn
N: Derived from No_29_War_Song_Dance.krn
%%abc-version 2.0
%%abcx-abcm2ps-target-version 5.9.1 (29 Sep 2008)
%%abc-creator hum2abc beta
%%abcx-conversion-date 2019/03/15 08:26:49
%%humdrum-veritas 3074299369
%%humdrum-veritas-data 1885114954
%%linebreak <none>
%%barnumbers 0
L: 1/8
M: 6/8
%%staves {1 2}
V: 1 clef=bass
V: 2 clef=bass
K: Eb
[V:1] [K:clef=bass][M:6/8]z3E,E, z/ E,/ | 
[V:2] [K:clef=bass][M:6/8]z z z z z z/ G,,/ | 
[V:1] EEE/ z/ ED/ z/ B, | 
[V:2] z z z z G,, z | 
[V:1] B,B,B, B, z E | 
[V:2] z z z z G,, z | 
[V:1] E2E/C/ E z B, | 
[V:2] z z z G,, z z | 
[V:1] B,2B, C z B, ||  
[V:2] z z z G,, z z ||  
[V:1] [M:7/8]B,G,G,G, z B,/G,/B, ||  
[V:2] [M:7/8]z G,, z z z z G,, ||  
[V:1] [M:3/8]F,E,F, ||  
[V:2] [M:3/8]z z z ||  
[V:1] [M:7/8]E,E,E,E,E, z B, | 
[V:2] [M:7/8]z G,, z z z z G,, | 
[V:1] B,G,G,B,/G,/F,/ z/ E,E, ||  
[V:2] z z z z z z z ||  
[V:1] [M:5/8]E,B,/ z3/ F,G,/ z/ ||  
[V:2] [M:5/8]G,, z z z z ||  
[V:1] [M:7/8]E,E,E,E,E,E,E, ||  
[V:2] [M:7/8]G,, z z z G,, z z ||  
[V:1] [M:6/8]F,G,/ z/ E,E,2B,, ||  
[V:2] [M:6/8]z z G,, z z z ||  
[V:1] [M:5/8]E,E,E,E,2 ||  
[V:2] [M:5/8]G,, z z z z ||  
[V:1] [M:6/8]E, z B,, B,,B,,/ z/ E, ||  
[V:2] [M:6/8]G,, z z z G,, z ||  
[V:1] [M:7/8]E,3-E,F,G,/ z/ E, ||  
[V:2] [M:7/8]z z z G,, z z z ||  
[V:1] [M:3/8]E,2B,, ||  
[V:2] [M:3/8]G,, z z ||  
[V:1] [M:5/8]E,E,E,E,2 |]  
[V:2] [M:5/8]z z G,, z z |]  



